X:35
T: ES BLIES EIN JAEGER WOL IN SEIN HORN
N: E0019A
O: Europa, Mitteleuropa, Deutschland, Berlin
R: Sage, Maerchen -, Zauber - Lied
M: 4/4
L: 1/8
K: G
D2 | G2G2G2d2 | B2d2G2d2 | B2d2G2z
G | AAAAAGFG | AGFED2z2 |
G2G2G3B | A2A2A2z
A | BABcd2G2 | A2B2G2

@@@ Tune index: 3685
